X:126
T:Ballinafad Polka, The
T:McDonagh's
R:polka
Z:id:hn-polka-126
M:2/4
L:1/8
K:G
B2 B/c/B/A/ | BG G>B | AG FG | AB cA |
B2 B/c/B/A/ | BG G>B | AG FE | D3 B/c/ |
dg d>B | cA A>c | BG EF | GF ED |
B2 B/c/B/A/ | BG G>B | AG FA | G2 Gg/a/ ||
|: b2 b/a/g/f/ | g3 d | f2 f/e/d/B/ | c3 d/c/ |
BG gd | cA B/c/d | e2 f2 |1 g2 ga :|2 g2 d>c ||
P:variations:
B/c/B/A/ B/c/B/A/ | BG G>B | AG FG | AB cd |
B/c/B/A/ B/c/B/A/ | BG G>B | AG FE | D3 B/c/ |
de d>B | cA Ad/c/ | BG EF | GF ED |
B/c/B/A/ B/c/B/A/ | BG GE | DG F/A/G/F/ | G2 Gg/a/ ||
|: b2 b/a/g/f/ | g3 d | f2 f/e/d/B/ | c3 d/c/ |
BG gd | cA B/c/d | e2 f2 |1 g2 ga :|2 g3 d/c/ ||
P:more variations:
B2 B/A/B/c/ | BG G>B | AG FG | AB cA |
B2 B/A/B/c/ | BG G>B | AG FE | D2 DB/c/ |
dg dB | cA Ad/c/ | BG EF | GF ED |
B2 B/A/B/c/ | BG G>E | DG F/G/A | G2 Ga ||
|: b2 b/a/g/f/ | g2 gd | f2 f/e/d/B/ | c2 cd/c/ |
Bd gd | cA B/c/d | e2 f2 |1 g2 ga :|2 g2 gd ||

